; Generated by LaserGRBL for macOS
; Date: 10/10/2025, 9:46 AM
; File: engraving
G21 ; Set units to millimeters
G90 ; Absolute positioning
M5 ; Laser off
G0 X0 Y0 ; Move to origin

G21 ; Set units to millimeters
G90 ; Absolute positioning
M5 ; Laser off
G0 X0 Y0 ; Move to origin
G21 ; Set units to millimeters
G90 ; Absolute positioning
M5 ; Laser off
G0 X0 Y0 ; Move to origin
G21 ; millimeters
G90 ; absolute positioning
M5 ; laser off
G0 X25 Y25 F300
M3 S200
G1 X25 Y40 F1000
G0 X25 Y25
M3 S300
G1 X38 Y29 F1000
G0 X25 Y25
M3 S400
G1 X35 Y15 F1000
G0 X25 Y2
M3 S500
G1 X15 Y15 F1000
G0 X25 Y25
M3 S600
G1 X12 Y29 F1000
G0 X25 Y25
M3 S800
G2 X25 Y25 I3 J0 F500
M5
G0 X0 Y0
M5 ; Laser off
G0 X0 Y0 ; Return to origin
M5 ; Laser off
G0 X0 Y0 ; Return to origin

; Program end
M5 ; Laser off
G0 X0 Y0 ; Return to origin
